flaticon/technology/usb-2.svg

<svg xmlns="http://www.w3.org/2000/svg" width="32" height="32" viewBox="0 0 24 24">
    <path d="M 24 5.664062 C 24 5.46875 23.921875 5.285156 23.785156 5.144531 L 21.914062 3.273438 L 21.316406 2.679688 L 21.316406 2.675781 L 18.851562 0.210938 C 18.574219 -0.0664062 18.089844 -0.0664062 17.8125 0.210938 L 13.257812 4.769531 L 12.871094 4.382812 C 12.28125 3.792969 11.246094 3.792969 10.652344 4.382812 L 3.253906 11.785156 C 2.894531 12.144531 2.699219 12.621094 2.699219 13.128906 C 2.699219 13.636719 2.894531 14.113281 3.253906 14.472656 C 3.664062 14.882812 3.664062 15.554688 3.253906 15.964844 L 2.734375 16.484375 C 2.28125 16.9375 2.28125 17.679688 2.734375 18.132812 L 3.402344 18.800781 L 0.371094 21.835938 C -0.125 22.328125 -0.125 23.132812 0.371094 23.625 C 0.609375 23.863281 0.925781 23.996094 1.265625 23.996094 C 1.605469 23.996094 1.921875 23.863281 2.160156 23.625 L 5.195312 20.59375 L 5.859375 21.261719 C 6.082031 21.480469 6.375 21.601562 6.6875 21.601562 C 6.996094 21.601562 7.292969 21.480469 7.511719 21.261719 L 8.03125 20.742188 C 8.429688 20.34375 9.125 20.34375 9.523438 20.742188 C 10.265625 21.484375 11.46875 21.484375 12.210938 20.742188 L 19.609375 13.34375 C 19.90625 13.046875 20.070312 12.652344 20.070312 12.234375 C 20.070312 11.8125 19.90625 11.421875 19.609375 11.125 L 19.226562 10.738281 L 23.785156 6.183594 C 23.921875 6.042969 24 5.859375 24 5.664062 Z M 1.5625 23.027344 C 1.40625 23.1875 1.128906 23.1875 0.96875 23.027344 C 0.804688 22.863281 0.804688 22.597656 0.96875 22.429688 L 4 19.398438 L 4.597656 19.996094 Z M 18.332031 0.886719 L 18.628906 1.183594 L 17.136719 2.679688 C 16.972656 2.84375 16.972656 3.109375 17.136719 3.273438 C 17.21875 3.355469 17.328125 3.398438 17.4375 3.398438 C 17.542969 3.398438 17.652344 3.359375 17.734375 3.277344 L 19.226562 1.78125 L 20.722656 3.277344 L 20.125 3.871094 L 19.527344 3.273438 L 18.03125 4.769531 L 18.628906 5.363281 L 18.332031 5.664062 L 17.734375 5.066406 L 16.242188 6.558594 L 16.839844 7.15625 L 16.242188 7.753906 L 13.855469 5.367188 Z M 19.015625 11.722656 C 19.152344 11.859375 19.226562 12.039062 19.226562 12.234375 C 19.226562 12.425781 19.152344 12.609375 19.015625 12.746094 L 11.613281 20.144531 C 11.203125 20.558594 10.53125 20.558594 10.121094 20.144531 C 9.761719 19.785156 9.285156 19.589844 8.777344 19.589844 C 8.269531 19.589844 7.792969 19.785156 7.433594 20.144531 L 6.914062 20.664062 C 6.792969 20.785156 6.582031 20.785156 6.457031 20.664062 L 3.332031 17.539062 C 3.207031 17.410156 3.207031 17.207031 3.332031 17.082031 L 3.851562 16.5625 C 4.589844 15.820312 4.589844 14.617188 3.851562 13.875 C 3.652344 13.675781 3.542969 13.410156 3.542969 13.128906 C 3.542969 12.847656 3.652344 12.582031 3.851562 12.382812 L 11.25 4.980469 C 11.386719 4.84375 11.570312 4.769531 11.761719 4.769531 C 11.957031 4.769531 12.136719 4.84375 12.273438 4.980469 Z M 18.628906 10.140625 L 16.839844 8.351562 L 18.035156 7.15625 L 17.4375 6.558594 L 17.734375 6.261719 L 18.332031 6.859375 L 19.824219 5.367188 L 19.226562 4.769531 L 19.527344 4.46875 L 20.125 5.066406 L 21.316406 3.871094 L 22.214844 4.769531 L 20.722656 6.261719 C 20.554688 6.425781 20.554688 6.691406 20.722656 6.859375 C 20.804688 6.941406 20.910156 6.980469 21.019531 6.980469 C 21.128906 6.980469 21.234375 6.941406 21.316406 6.859375 L 22.8125 5.367188 L 23.109375 5.664062 Z M 18.628906 10.140625"/>
</svg>

<svg xmlns="http://www.w3.org/2000/svg" width="32" height="32" viewBox="0 0 24 24">
    <path d="M24 5.664a.743.743 0 0 0-.215-.52l-1.87-1.87-.599-.594v-.004L18.852.21a.753.753 0 0 0-1.04 0L13.258 4.77l-.387-.387c-.59-.59-1.625-.59-2.219 0l-7.398 7.402c-.36.36-.555.836-.555 1.344 0 .508.196.984.555 1.344.41.41.41 1.082 0 1.492l-.52.52a1.17 1.17 0 0 0 0 1.648l.668.668-3.03 3.035a1.261 1.261 0 0 0 0 1.789c.237.238.554.371.894.371.34 0 .656-.133.894-.371l3.035-3.031.664.668a1.174 1.174 0 0 0 1.653 0l.52-.52a1.08 1.08 0 0 1 1.491 0 1.9 1.9 0 0 0 2.688 0l7.398-7.398a1.56 1.56 0 0 0 .461-1.11c0-.421-.164-.812-.46-1.109l-.383-.387 4.558-4.554a.743.743 0 0 0 .215-.52zM1.562 23.027a.427.427 0 0 1-.593 0 .424.424 0 0 1 0-.597L4 19.398l.598.598zM18.332.887l.297.297-1.492 1.496a.42.42 0 0 0 0 .593.426.426 0 0 0 .597.004l1.493-1.496 1.496 1.496-.598.594-.598-.598-1.496 1.497.598.593-.297.301-.598-.598-1.492 1.493.598.597-.598.598-2.387-2.387zm.684 10.836c.136.136.21.316.21.511a.721.721 0 0 1-.21.512l-7.403 7.399a1.052 1.052 0 0 1-1.492 0 1.885 1.885 0 0 0-1.344-.555c-.507 0-.984.195-1.343.555l-.52.52a.333.333 0 0 1-.457 0l-3.125-3.126a.325.325 0 0 1 0-.457l.52-.52a1.907 1.907 0 0 0 0-2.687c-.2-.2-.309-.465-.309-.746 0-.281.11-.547.309-.746L11.25 4.98a.721.721 0 0 1 .512-.21c.195 0 .375.074.511.21zm-.387-1.582l-1.79-1.79 1.196-1.195-.598-.597.297-.297.598.597 1.492-1.492-.597-.597.3-.301.598.597 1.191-1.195.899.899-1.492 1.492a.417.417 0 0 0 0 .597.413.413 0 0 0 .297.121c.109 0 .214-.039.296-.12l1.497-1.493.296.297zm0 0"/>
</svg>
